build/img/social/pinterest.svg

<svg width="16" height="16" viewBox="0 0 16 16" fill="none" xmlns="http://www.w3.org/2000/svg">
<path d="M15.5 8C15.5 12.2812 12.0312 15.75 7.75 15.75C6.9375 15.75 6.15625 15.6562 5.4375 15.4062C5.75 14.9062 6.21875 14.0625 6.40625 13.375C6.5 13.0312 6.875 11.5312 6.875 11.5312C7.125 12.0312 7.875 12.4375 8.65625 12.4375C11 12.4375 12.6875 10.2812 12.6875 7.625C12.6875 5.0625 10.5938 3.125 7.90625 3.125C4.5625 3.125 2.78125 5.375 2.78125 7.8125C2.78125 8.96875 3.375 10.375 4.34375 10.8438C4.5 10.9062 4.59375 10.875 4.625 10.7188C4.625 10.625 4.78125 10.0938 4.84375 9.84375C4.84375 9.78125 4.84375 9.6875 4.78125 9.625C4.46875 9.25 4.21875 8.53125 4.21875 7.84375C4.21875 6.15625 5.5 4.5 7.71875 4.5C9.59375 4.5 10.9375 5.78125 10.9375 7.65625C10.9375 9.75 9.875 11.1875 8.5 11.1875C7.75 11.1875 7.1875 10.5625 7.34375 9.8125C7.5625 8.875 8 7.875 8 7.21875C8 6.625 7.6875 6.125 7.03125 6.125C6.25 6.125 5.625 6.9375 5.625 8C5.625 8.6875 5.84375 9.15625 5.84375 9.15625C5.84375 9.15625 5.09375 12.4062 4.9375 13C4.78125 13.6875 4.84375 14.625 4.90625 15.2188C2.03125 14.0938 0 11.3125 0 8C0 3.71875 3.46875 0.25 7.75 0.25C12.0312 0.25 15.5 3.71875 15.5 8Z" fill="#707070"/>
</svg>

<svg width="16" height="16" fill="none" xmlns="http://www.w3.org/2000/svg"><path d="M15.5 8a7.749 7.749 0 01-7.75 7.75c-.813 0-1.594-.094-2.313-.344.313-.5.782-1.344.97-2.031.093-.344.468-1.844.468-1.844.25.5 1 .906 1.781.906 2.344 0 4.031-2.156 4.031-4.812 0-2.563-2.093-4.5-4.78-4.5-3.345 0-5.126 2.25-5.126 4.688 0 1.156.594 2.562 1.563 3.03.156.063.25.032.281-.124 0-.094.156-.625.219-.875 0-.063 0-.156-.063-.219-.312-.375-.562-1.094-.562-1.781 0-1.688 1.281-3.344 3.5-3.344 1.875 0 3.218 1.281 3.218 3.156 0 2.094-1.062 3.532-2.437 3.532-.75 0-1.313-.626-1.156-1.376C7.562 8.876 8 7.875 8 7.22c0-.594-.313-1.094-.969-1.094-.781 0-1.406.813-1.406 1.875 0 .688.219 1.156.219 1.156s-.75 3.25-.907 3.844c-.156.688-.093 1.625-.03 2.219A7.714 7.714 0 010 8 7.749 7.749 0 017.75.25 7.749 7.749 0 0115.5 8z" fill="#707070"/></svg>
